X: 29650
T: Northern Road, The
R: jig
M: 6/8
K: Dmajor
d|:AGF A2D|DED FED|AGF A2D|F3 d3|
AGF A2D|DED AGF|EFE E2F|G3 B3:|
ABc d2F|AGF d2F|ABc dAF|B3 d3|
ABc ded|cBA d2A|Bcd EFE|G3 B3|
ABc d2F|AGF d2F|ABc dAF|B3 d3|
faf gec|fdB AFD|EFE E2F|G3 B2||

